X:52
T:Roll And Go
M:4/4
L:1/8
Q:1/4=150
K:Bb
%Intro
(B3A/B/) (c2(3cde)|d2c2 B2||
%Song starts here
dc|\
B3F (BA)F2|(BA)F2 (EF)G2|F4 E3D|B,6 B,2|
B,2(DE) F2G2|_A2G2 F4|(B3A/B/) (c2(3cde)|d2c2 B2dc|
B3A (BA)F2|(BA)F2  E3  G|F4 E3D|B,6||
